fs/auto_fit_width_20_filled.svg

<svg viewBox="0 0 20 20" fill="none" xmlns="http://www.w3.org/2000/svg" height="1em" width="1em">
  <path d="M18 4.25C18 3.83579 17.6642 3.5 17.25 3.5C16.8358 3.5 16.5 3.83579 16.5 4.25L16.5 15.25C16.5 15.6642 16.8358 16 17.25 16C17.6642 16 18 15.6642 18 15.25V4.25ZM3.5 4.25C3.5 3.83579 3.16421 3.5 2.75 3.5C2.33579 3.5 2 3.83579 2 4.25L2 15.25C2 15.6642 2.33579 16 2.75 16C3.16421 16 3.5 15.6642 3.5 15.25L3.5 4.25ZM5.21967 10.2803L7.21967 12.2803C7.51256 12.5732 7.98744 12.5732 8.28033 12.2803C8.57322 11.9874 8.57322 11.5126 8.28033 11.2197L7.56066 10.5L12.4393 10.5L11.7197 11.2197C11.4268 11.5126 11.4268 11.9874 11.7197 12.2803C12.0126 12.5732 12.4874 12.5732 12.7803 12.2803L14.7803 10.2803C15.0732 9.98744 15.0732 9.51256 14.7803 9.21967L12.7803 7.21967C12.4874 6.92678 12.0126 6.92678 11.7197 7.21967C11.4268 7.51256 11.4268 7.98744 11.7197 8.28033L12.4393 9L7.56066 9L8.28033 8.28033C8.57322 7.98744 8.57322 7.51256 8.28033 7.21967C7.98744 6.92678 7.51256 6.92678 7.21967 7.21967L5.21967 9.21967C4.92678 9.51256 4.92678 9.98744 5.21967 10.2803Z" fill="#212121"/>
</svg>

<svg viewBox="0 0 20 20" fill="none" xmlns="http://www.w3.org/2000/svg" height="1em" width="1em">
  <path d="M18 4.25a.75.75 0 0 0-1.5 0v11a.75.75 0 0 0 1.5 0v-11Zm-14.5 0a.75.75 0 0 0-1.5 0v11a.75.75 0 0 0 1.5 0v-11Zm1.72 6.03 2 2a.75.75 0 0 0 1.06-1.06l-.72-.72h4.88l-.72.72a.75.75 0 1 0 1.06 1.06l2-2a.75.75 0 0 0 0-1.06l-2-2a.75.75 0 1 0-1.06 1.06l.72.72H7.56l.72-.72a.75.75 0 0 0-1.06-1.06l-2 2a.75.75 0 0 0 0 1.06Z" fill="#212121"/>
</svg>
